storage/app/icons/phosphoricons/thin/cloud-snow-thin.svg

<svg xmlns="http://www.w3.org/2000/svg" viewBox="0 0 256 256" fill="currentColor"><path d="M84,196a8,8,0,1,1-8-8A8,8,0,0,1,84,196Zm32,8a8,8,0,1,0,8,8A8,8,0,0,0,116,204Zm48-16a8,8,0,1,0,8,8A8,8,0,0,0,164,188ZM68,228a8,8,0,1,0,8,8A8,8,0,0,0,68,228Zm88,0a8,8,0,1,0,8,8A8,8,0,0,0,156,228ZM228,92a72.08,72.08,0,0,1-72,72H76A48,48,0,1,1,87.51,69.39,72.08,72.08,0,0,1,228,92Zm-8,0A64.06,64.06,0,0,0,92,88.23a4,4,0,0,1-8-.46,71.63,71.63,0,0,1,1.42-10.65A40,40,0,1,0,76,156h80A64.07,64.07,0,0,0,220,92Z"/></svg>

<svg xmlns="http://www.w3.org/2000/svg" fill="currentColor" viewBox="0 0 256 256"><path d="M84 196a8 8 0 1 1-8-8 8 8 0 0 1 8 8m32 8a8 8 0 1 0 8 8 8 8 0 0 0-8-8m48-16a8 8 0 1 0 8 8 8 8 0 0 0-8-8m-96 40a8 8 0 1 0 8 8 8 8 0 0 0-8-8m88 0a8 8 0 1 0 8 8 8 8 0 0 0-8-8m72-136a72.08 72.08 0 0 1-72 72H76a48 48 0 1 1 11.51-94.61A72.08 72.08 0 0 1 228 92m-8 0a64.06 64.06 0 0 0-128-3.77 4 4 0 0 1-8-.46 71.6 71.6 0 0 1 1.42-10.65A40 40 0 1 0 76 156h80a64.07 64.07 0 0 0 64-64"/></svg>
